X: 29775
T: O Steer Her Up, An Haud Her Gaun
R: polka
M: 2/4
K: Dmajor
fe|"D"d2 d2 f3 e|"D"defg AG|"D"F2 A2 A2 GF|"C"G2 E2 E3 E|
"D"d2 d2 f3--- e|"D"defg a2 ga|"G"bagf "A"egfe|"D" d2 d2 d2:|
|:fe|"D"d2 A2 F3 A|"D"dAGA F2 ED|"C"E2 =c2 E3 F|"C"GFED =C2 Bc|
"D"d2 A2 F3 E|"D"DEFG ABcd|"Em"efgf "A"ecAc|"D"d2 d2 d2:|

